X:65
%%score 1 2
T:All you that love good fellows or the London prentice.
M:C
L:1/8
K:C
V:1 clef-treble
V:2 clef-bass octave=-1
V:1
G2|:[Ec]2G2[EC]2[Gd]2|[ce]4[Gd]2[DGB]2|[CGc]2G2[B,G]FED|1 C6G2&x6GF:|2 C6||
V:2
z2|:C,4[Cc]2[Gd]2|[ce]4[Gd]2[F,F]2|[E,E]2z2[G,DG]2z2| [CEG]2G,2G,F,E,D,:||[CEG]6||
V:1
[EGc]2|[GBd]2[Gce]2[GAd]2[^FA]2|[Gd]2d2d2[^Fce]2|[Gd]3[EGc][DGB]2[C^FA]2|[B,G]2G2[Gg]3f|[Gce]2c2[Gce]2[GBd]2|
V:2
C2|G2C2D3C|B,6A,2|B,3CD2D2|G3=FE2D2|C2E2G2F2|
V:1
[Gc]2G2G2[CEG]2|AB[CGc]2[DFc]2[DFB]2&[CF]2x6|[Ec]6||[CEG]2|[FA]2[EG]2[FA]3[EG]&C8|[FA]2[EG]2[FA]3[EG]&C8|
V:2
E6C2|F2E2D2G2|C6||C2|F,6C2|F6C2|
V:1
[CF]4[CF]4|[B,D]6[Ec]2|[GD]2[ce]2[Gd]2[Ec]2|[Gd]3[ce] [Gd]2[Gdg]f|[Gce]2[Gd]c c2B2&x4[Gd]4|[Ec]6||
V:2
A,2F,2C2C,2|G,2G,,2G,2[Ec]2|[Gd]2[ce]2[Gd]2[Ec]2|[Gd]3[ce][Gd]2[B,,B,]2|[C,C]2[E,E]2[G,G]4|[Cc]6||

